X:1
T:John Taylor, 1795 66. 86. (S. M.)
T:D minor Oliver Holden, 1800
T:Repentant Song No copyright. Transcribed from Plain Psalmody, 1800.
%%score [ 1 2 3 4 ]
L:1/8
M:4/4
K:F
V:1 treble nm="Treble" snm="Tr."
V:2 treble nm="Counter" snm="C."
V:3 treble-8 nm="Tenor" snm="T."
V:4 bass nm="Bass" snm="B."
V:1
 A4 A4 | F4 F4 | A4 A4 | A8 | c4 c4 | f4 A4 | c4 c4 | A8 | A4 A4 | F4 F4 | A4 G4 | F8 | A6 d2 | %13
 e6 d2 | c4 B4 | A8 | (f2 d2) (A2 F2) | E6 A2 | (d2 ^c2) (d2 e2) | d8 | A4 A4 | A6 F2 | F4 E4 | %23
 D8 |] %24
V:2
 F4 F4 | D4 D4 | D4 E4 | F8 | E4 G4 | A4 A4 | F4 E4 | D8 | F4 F4 | A4 F4 | D4 E4 | F8 | F6 A2 | %13
 G6 F2 | A4 c4 | c8 | (F2 D2) (A2 F2) | A6 F2 | D2 E2 F2 G2 | A8 | F4 E4 | F6 A2 | D4 E4 | D8 |] %24
V:3
 D4 D4 | A4 A4 | F4 E4 | D8 | G4 G4 | c4 d4 | A4 G4 | F8 | D4 D4 | A4 A4 | F4 G4 | A8 | d6 A2 | %13
w: 1.~God of|mer- cy,|God of|love,|Hear our|sad re-|pen- tant|song:|Sor- row|dwells on|eve- ry|face,|Pen- i-|
 G6 A2 | F4 E4 | F8 | (d2 f2) (e2 d2) | ^c6 d2 | (f2 e2) (d2 ^c2) | d8 | d4 e4 | d6 A2 | A4 ^c4 | %23
w: tence on|eve- ry|tongue.|Sor- * row *|dwells on|eve- * ry *|face,|Pen- i-|tence on|eve- ry|
 d8 |] %24
w: tongue.|
V:4
 D,4 D,4 | D,4 D,4 | A,,4 A,,4 | D,8 | E,4 C,4 | A,,4 B,,4 | C,4 C,4 | F,8 | D,4 D,4 | D,4 D,4 | %10
 D,4 A,,4 | D,8 | D,6 F,2 | E,6 F,2 | C,4 C,4 | F,8 | D4 (^C2 D2) | A,6 D,2 | A,4 A,4 | D,8 | %20
 D,4 A,,4 | D,6 D,2 | A,4 A,,4 | D,8 |] %24

